Media/discord.svg

<svg width="51" height="50" viewBox="0 0 51 50" fill="none" xmlns="http://www.w3.org/2000/svg">
<g clip-path="url(#clip0_446:38)">
<path d="M42.4652 9.35836C39.2938 7.92086 35.8945 6.85836 32.3397 6.25419C32.308 6.24808 32.2752 6.25202 32.2459 6.26546C32.2166 6.2789 32.1921 6.30117 32.1759 6.32919C31.7406 7.09794 31.2556 8.10003 30.9157 8.89169C27.1455 8.32552 23.3125 8.32552 19.5423 8.89169C19.1637 8.01432 18.7367 7.15883 18.2634 6.32919C18.2474 6.30082 18.2231 6.27805 18.1939 6.2639C18.1646 6.24976 18.1317 6.24492 18.0997 6.25003C14.5469 6.85419 11.1476 7.91669 7.97416 9.35628C7.94686 9.36779 7.92372 9.38741 7.90783 9.41253C1.45735 18.9438 -0.31073 28.2396 0.557764 37.4188C0.56018 37.4413 0.567123 37.463 0.57817 37.4827C0.589217 37.5024 0.604136 37.5196 0.62202 37.5334C4.387 40.2884 8.58633 42.3871 13.0442 43.7417C13.0753 43.7513 13.1085 43.7513 13.1396 43.7416C13.1706 43.732 13.1981 43.7131 13.2183 43.6875C14.1759 42.3959 15.0299 41.0313 15.7595 39.5979C15.803 39.5146 15.7616 39.4146 15.6745 39.3813C14.3355 38.8745 13.0381 38.2629 11.7943 37.5521C11.7719 37.5393 11.7531 37.5211 11.7395 37.4991C11.7259 37.4772 11.7179 37.4522 11.7162 37.4264C11.7146 37.4006 11.7193 37.3748 11.7301 37.3512C11.7408 37.3277 11.7572 37.3073 11.7777 37.2917C12.0389 37.0979 12.3 36.8959 12.5488 36.6938C12.5712 36.6756 12.5981 36.664 12.6267 36.6604C12.6552 36.6567 12.6842 36.661 12.7105 36.6729C20.8503 40.3479 29.6658 40.3479 37.7102 36.6729C37.7365 36.6603 37.7658 36.6554 37.7948 36.6587C37.8237 36.662 37.8512 36.6735 37.874 36.6917C38.1227 36.8959 38.3818 37.0979 38.6451 37.2917C38.6658 37.3069 38.6824 37.3271 38.6935 37.3504C38.7046 37.3738 38.7097 37.3995 38.7085 37.4253C38.7073 37.4511 38.6997 37.4762 38.6865 37.4983C38.6732 37.5204 38.6547 37.5389 38.6326 37.5521C37.3931 38.2688 36.1038 38.875 34.7503 39.3792C34.7295 39.3868 34.7106 39.3987 34.6948 39.4143C34.6789 39.4298 34.6666 39.4485 34.6585 39.4692C34.6505 39.4899 34.6469 39.5121 34.6481 39.5343C34.6493 39.5565 34.6551 39.5782 34.6653 39.5979C35.4115 41.0292 36.2655 42.3917 37.2045 43.6854C37.224 43.712 37.2512 43.7318 37.2823 43.7423C37.3135 43.7527 37.3471 43.7532 37.3786 43.7438C41.8441 42.393 46.0503 40.2933 49.8194 37.5334C49.8378 37.5204 49.8532 37.5037 49.8647 37.4843C49.8761 37.4649 49.8833 37.4433 49.8857 37.4209C50.9221 26.8084 48.1487 17.5875 42.5294 9.41669C42.5157 9.39014 42.4929 9.36944 42.4652 9.35836ZM16.9762 31.8292C14.5262 31.8292 12.5053 29.6021 12.5053 26.8709C12.5053 24.1375 14.4868 21.9125 16.9762 21.9125C19.4843 21.9125 21.4866 24.1563 21.4472 26.8709C21.4472 29.6042 19.4656 31.8292 16.9762 31.8292ZM33.5066 31.8292C31.0545 31.8292 29.0357 29.6021 29.0357 26.8709C29.0357 24.1375 31.0152 21.9125 33.5066 21.9125C36.0147 21.9125 38.017 24.1563 37.9776 26.8709C37.9776 29.6042 36.0168 31.8292 33.5066 31.8292Z" fill="white"/>
</g>
<defs>
<clipPath id="clip0_446:38">
<rect width="49.7467" height="50" fill="white" transform="translate(0.353516)"/>
</clipPath>
</defs>
</svg>

<svg width="51" height="50" fill="none" xmlns="http://www.w3.org/2000/svg"><g clip-path="url(#a)"><path d="M42.465 9.358A41.293 41.293 0 0 0 32.34 6.254a.155.155 0 0 0-.164.075c-.435.769-.92 1.771-1.26 2.563a38.291 38.291 0 0 0-11.374 0 25.8 25.8 0 0 0-1.279-2.563.16.16 0 0 0-.163-.079A41.26 41.26 0 0 0 7.974 9.356a.145.145 0 0 0-.066.057C1.458 18.943-.311 28.24.558 37.419a.167.167 0 0 0 .064.114 41.437 41.437 0 0 0 12.422 6.209.16.16 0 0 0 .174-.054 28.83 28.83 0 0 0 2.541-4.09.155.155 0 0 0-.085-.217 27.29 27.29 0 0 1-3.88-1.829.155.155 0 0 1-.078-.126.157.157 0 0 1 .062-.134c.26-.194.522-.396.77-.598a.154.154 0 0 1 .162-.021c8.14 3.675 16.956 3.675 25 0a.155.155 0 0 1 .164.019c.249.204.508.406.771.6a.156.156 0 0 1 .041.206.157.157 0 0 1-.053.054 25.529 25.529 0 0 1-3.883 1.827.154.154 0 0 0-.092.09.157.157 0 0 0 .007.129 32.696 32.696 0 0 0 2.54 4.087.16.16 0 0 0 .174.059 41.298 41.298 0 0 0 12.44-6.21.16.16 0 0 0 .067-.113c1.036-10.613-1.737-19.834-7.357-28.004a.124.124 0 0 0-.064-.059ZM16.976 31.83c-2.45 0-4.47-2.227-4.47-4.958 0-2.733 1.98-4.958 4.47-4.958 2.508 0 4.51 2.243 4.471 4.958 0 2.733-1.981 4.958-4.47 4.958Zm16.53 0c-2.451 0-4.47-2.227-4.47-4.958 0-2.733 1.98-4.958 4.47-4.958 2.509 0 4.511 2.243 4.472 4.958 0 2.733-1.961 4.958-4.471 4.958Z" fill="#fff"/></g><defs><clipPath id="a"><path fill="#fff" transform="translate(.354)" d="M0 0h49.747v50H0z"/></clipPath></defs></svg>
